svg/drawing.svg

<?xml version="1.0" encoding="UTF-8" standalone="no"?>
<!-- Created with Inkscape (http://www.inkscape.org/) -->

<svg
   xmlns:dc="http://purl.org/dc/elements/1.1/"
   xmlns:cc="http://creativecommons.org/ns#"
   xmlns:rdf="http://www.w3.org/1999/02/22-rdf-syntax-ns#"
   xmlns:svg="http://www.w3.org/2000/svg"
   xmlns="http://www.w3.org/2000/svg"
   xmlns:sodipodi="http://sodipodi.sourceforge.net/DTD/sodipodi-0.dtd"
   xmlns:inkscape="http://www.inkscape.org/namespaces/inkscape"
   width="210mm"
   height="297mm"
   viewBox="0 0 210 297"
   version="1.1"
   id="svg8"
   inkscape:version="0.92.1 r15371"
   sodipodi:docname="drawing.svg">
  <defs
     id="defs2" />
  <sodipodi:namedview
     id="base"
     pagecolor="#ffffff"
     bordercolor="#666666"
     borderopacity="1.0"
     inkscape:pageopacity="0.0"
     inkscape:pageshadow="2"
     inkscape:zoom="2.0000001"
     inkscape:cx="172.85927"
     inkscape:cy="442.70392"
     inkscape:document-units="mm"
     inkscape:current-layer="layer1"
     showgrid="false"
     inkscape:snap-bbox="true"
     inkscape:snap-bbox-edge-midpoints="false"
     inkscape:window-width="1920"
     inkscape:window-height="1107"
     inkscape:window-x="0"
     inkscape:window-y="31"
     inkscape:window-maximized="1"
     inkscape:snap-bbox-midpoints="true"
     inkscape:bbox-paths="false"
     inkscape:bbox-nodes="true"
     inkscape:measure-start="216.728,350.725"
     inkscape:measure-end="262.1,406.254" />
  <metadata
     id="metadata5">
    <rdf:RDF>
      <cc:Work
         rdf:about="">
        <dc:format>image/svg+xml</dc:format>
        <dc:type
           rdf:resource="http://purl.org/dc/dcmitype/StillImage" />
        <dc:title />
      </cc:Work>
    </rdf:RDF>
  </metadata>
  <g
     inkscape:label="Layer 1"
     inkscape:groupmode="layer"
     id="layer1">
    <circle
       style="fill:none;fill-opacity:1;stroke:#000000;stroke-width:0.02790278;stroke-miterlimit:4;stroke-dasharray:none;stroke-opacity:1"
       id="path4485"
       cx="69.347397"
       cy="116.862"
       r="4" />
    <circle
       style="fill:none;fill-opacity:1;stroke:#000000;stroke-width:0.02790278;stroke-miterlimit:4;stroke-dasharray:none;stroke-opacity:1"
       id="path4485-3"
       cx="69.347397"
       cy="210.26241"
       r="4" />
    <rect
       style="fill:none;fill-opacity:1;stroke:#ff0000;stroke-width:0.30000001;stroke-miterlimit:4;stroke-dasharray:none;stroke-opacity:1"
       id="rect4523"
       width="55"
       height="8"
       x="69.347397"
       y="206.26241" />
    <rect
       style="fill:none;fill-opacity:1;stroke:#ff0000;stroke-width:0.45005134;stroke-miterlimit:4;stroke-dasharray:none;stroke-opacity:1"
       id="rect4525"
       width="33"
       height="42"
       x="124.3474"
       y="189.26241" />
    <rect
       style="fill:none;fill-opacity:1;stroke:#ff0000;stroke-width:0.13172698;stroke-miterlimit:4;stroke-dasharray:none;stroke-opacity:1"
       id="rect4527"
       width="17"
       height="33"
       x="60.847252"
       y="160.26224" />
    <path
       style="fill:none;fill-opacity:1;stroke:#ff0000;stroke-width:0.56409812;stroke-miterlimit:4;stroke-dasharray:none;stroke-opacity:1"
       d="m 262.09961,605.71484 a 32.125984,32.125984 0 0 0 -32.125,32.12696 32.125984,32.125984 0 0 0 13.22851,25.9375 v 47.76367 a 18.897638,18.897638 0 0 0 18.89649,18.89844 18.897638,18.897638 0 0 0 18.89844,-18.89844 v -47.76953 a 32.125984,32.125984 0 0 0 13.22851,-25.93164 32.125984,32.125984 0 0 0 -32.12695,-32.12696 z"
       transform="scale(0.26458333)"
       id="path4529"
       inkscape:connector-curvature="0" />
    <rect
       style="fill:none;fill-opacity:1;stroke:#ff0000;stroke-width:0.08027562;stroke-miterlimit:4;stroke-dasharray:none;stroke-opacity:1"
       id="rect4539"
       width="7"
       height="17"
       x="65.847397"
       y="193.26241" />
    <rect
       style="fill:none;fill-opacity:1;stroke:#ff0000;stroke-width:0.20361255;stroke-miterlimit:4;stroke-dasharray:none;stroke-opacity:1"
       id="rect4544"
       width="157.80182"
       height="170.22684"
       x="10.847251"
       y="109.48769" />
    <circle
       style="fill:none;fill-opacity:1;stroke:#ff0000;stroke-width:0.03749099;stroke-miterlimit:4;stroke-dasharray:none;stroke-opacity:1"
       id="path4498-3"
       cx="120.8474"
       cy="238.26241"
       r="1.5" />
    <circle
       style="fill:none;fill-opacity:1;stroke:#ff0000;stroke-width:0.03749099;stroke-miterlimit:4;stroke-dasharray:none;stroke-opacity:1"
       id="path4498-6"
       cx="141.84741"
       cy="238.26241"
       r="1.5" />
    <rect
       style="fill:none;fill-opacity:1;stroke:#ff0000;stroke-width:0.13329715;stroke-miterlimit:4;stroke-dasharray:none;stroke-opacity:1"
       id="rect4528"
       width="33"
       height="4"
       x="114.3474"
       y="236.26241" />
    <circle
       style="fill:none;fill-opacity:1;stroke:#ff0000;stroke-width:0.03749099;stroke-miterlimit:4;stroke-dasharray:none;stroke-opacity:1"
       id="path4498-6-3"
       cx="142.84738"
       cy="268.26239"
       r="1.5" />
    <rect
       style="fill:none;fill-opacity:1;stroke:#ff0000;stroke-width:0.13329715;stroke-miterlimit:4;stroke-dasharray:none;stroke-opacity:1"
       id="rect4528-5"
       width="33"
       height="4"
       x="114.3474"
       y="266.26239" />
    <rect
       style="fill:none;fill-opacity:1;stroke:#ff0000;stroke-width:0.12567832;stroke-miterlimit:4;stroke-dasharray:none;stroke-opacity:1"
       id="rect4553"
       width="31.655506"
       height="5"
       x="125.69189"
       y="231.26241" />
    <circle
       style="fill:none;fill-opacity:1;stroke:#ff0000;stroke-width:0.03749099;stroke-miterlimit:4;stroke-dasharray:none;stroke-opacity:1"
       id="path4498-6-3-2"
       cx="120.8474"
       cy="268.26239"
       r="1.5" />
    <circle
       style="opacity:1;fill:none;fill-opacity:1;stroke:#020202;stroke-width:0.15326647;stroke-miterlimit:4;stroke-dasharray:none;stroke-opacity:1"
       id="path4497"
       cx="69.347183"
       cy="168.51205"
       r="0.5" />
    <rect
       style="opacity:1;fill:none;fill-opacity:1;stroke:#020202;stroke-width:0.5;stroke-miterlimit:4;stroke-dasharray:none;stroke-opacity:1"
       id="rect4501"
       width="80"
       height="42"
       x="29.347183"
       y="147.51205" />
    <circle
       style="opacity:1;fill:none;fill-opacity:1;stroke:#020202;stroke-width:0.2139674;stroke-miterlimit:4;stroke-dasharray:none;stroke-opacity:1"
       id="path4505"
       cx="34.347183"
       cy="153.01205"
       r="2.0999999" />
    <circle
       style="opacity:1;fill:none;fill-opacity:1;stroke:#020202;stroke-width:0.2139674;stroke-miterlimit:4;stroke-dasharray:none;stroke-opacity:1"
       id="path4505-3"
       cx="34.347183"
       cy="184.01205"
       r="2.0999999" />
    <circle
       style="opacity:1;fill:none;fill-opacity:1;stroke:#020202;stroke-width:0.2139674;stroke-miterlimit:4;stroke-dasharray:none;stroke-opacity:1"
       id="path4505-6"
       cx="104.34718"
       cy="153.01205"
       r="2.0999999" />
    <circle
       style="opacity:1;fill:none;fill-opacity:1;stroke:#020202;stroke-width:0.2139674;stroke-miterlimit:4;stroke-dasharray:none;stroke-opacity:1"
       id="path4505-6-7"
       cx="104.34718"
       cy="184.01205"
       r="2.0999999" />
  </g>
</svg>

<?xml version="1.0" encoding="UTF-8" standalone="no"?>
<!-- Created with Inkscape (http://www.inkscape.org/) -->

<svg
   xmlns:dc="http://purl.org/dc/elements/1.1/"
   xmlns:cc="http://creativecommons.org/ns#"
   xmlns:rdf="http://www.w3.org/1999/02/22-rdf-syntax-ns#"
   xmlns:svg="http://www.w3.org/2000/svg"
   xmlns="http://www.w3.org/2000/svg"
   xmlns:sodipodi="http://sodipodi.sourceforge.net/DTD/sodipodi-0.dtd"
   xmlns:inkscape="http://www.inkscape.org/namespaces/inkscape"
   width="210mm"
   height="297mm"
   viewBox="0 0 210 297"
   version="1.1"
   id="svg8"
   inkscape:version="0.92.1 r15371"
   sodipodi:docname="drawing.svg">
  <defs
     id="defs2" />
  <sodipodi:namedview
     id="base"
     pagecolor="#ffffff"
     bordercolor="#666666"
     borderopacity="1.0"
     inkscape:pageopacity="0.0"
     inkscape:pageshadow="2"
     inkscape:zoom="0.7071068"
     inkscape:cx="149.11157"
     inkscape:cy="266.73226"
     inkscape:document-units="mm"
     inkscape:current-layer="layer1"
     showgrid="false"
     inkscape:snap-bbox="true"
     inkscape:snap-bbox-edge-midpoints="true"
     inkscape:window-width="1920"
     inkscape:window-height="1114"
     inkscape:window-x="0"
     inkscape:window-y="31"
     inkscape:window-maximized="1"
     inkscape:snap-bbox-midpoints="true"
     inkscape:bbox-paths="false"
     inkscape:bbox-nodes="false" />
  <metadata
     id="metadata5">
    <rdf:RDF>
      <cc:Work
         rdf:about="">
        <dc:format>image/svg+xml</dc:format>
        <dc:type
           rdf:resource="http://purl.org/dc/dcmitype/StillImage" />
        <dc:title />
      </cc:Work>
    </rdf:RDF>
  </metadata>
  <g
     inkscape:label="Layer 1"
     inkscape:groupmode="layer"
     id="layer1">
    <circle
       style="fill:none;fill-opacity:1;stroke:#000000;stroke-width:0.02790278;stroke-miterlimit:4;stroke-dasharray:none;stroke-opacity:1"
       id="path4485"
       cx="69.347397"
       cy="116.862"
       r="4" />
    <circle
       style="fill:none;fill-opacity:1;stroke:#000000;stroke-width:0.02790278;stroke-miterlimit:4;stroke-dasharray:none;stroke-opacity:1"
       id="path4485-3"
       cx="69.347397"
       cy="210.26241"
       r="4" />
    <rect
       style="fill:none;fill-opacity:1;stroke:#ff0000;stroke-width:0.3;stroke-miterlimit:4;stroke-dasharray:none;stroke-opacity:1"
       id="rect4523"
       width="55"
       height="8"
       x="69.347397"
       y="206.26241" />
    <rect
       style="fill:none;fill-opacity:1;stroke:#ff0000;stroke-width:0.45005134;stroke-miterlimit:4;stroke-dasharray:none;stroke-opacity:1"
       id="rect4525"
       width="33"
       height="42"
       x="124.3474"
       y="189.26241" />
    <rect
       style="fill:none;fill-opacity:1;stroke:#ff0000;stroke-width:0.13172698;stroke-miterlimit:4;stroke-dasharray:none;stroke-opacity:1"
       id="rect4527"
       width="17"
       height="33"
       x="60.847252"
       y="160.26224" />
    <path
       style="fill:none;fill-opacity:1;stroke:#ff0000;stroke-width:0.56409812;stroke-miterlimit:4;stroke-dasharray:none;stroke-opacity:1"
       d="M 262.09961 605.71484 A 32.125984 32.125984 0 0 0 229.97461 637.8418 A 32.125984 32.125984 0 0 0 243.20312 663.7793 L 243.20312 711.54297 A 18.897638 18.897638 0 0 0 262.09961 730.44141 A 18.897638 18.897638 0 0 0 280.99805 711.54297 L 280.99805 663.77344 A 32.125984 32.125984 0 0 0 294.22656 637.8418 A 32.125984 32.125984 0 0 0 262.09961 605.71484 z "
       transform="scale(0.26458333)"
       id="path4529" />
    <rect
       style="fill:none;fill-opacity:1;stroke:#ff0000;stroke-width:0.08027562;stroke-miterlimit:4;stroke-dasharray:none;stroke-opacity:1"
       id="rect4539"
       width="7"
       height="17"
       x="65.847397"
       y="193.26241" />
    <rect
       style="fill:none;fill-opacity:1;stroke:#ff0000;stroke-width:0.20361255;stroke-miterlimit:4;stroke-dasharray:none;stroke-opacity:1"
       id="rect4544"
       width="157.80182"
       height="170.22684"
       x="10.847251"
       y="109.48769" />
    <circle
       style="fill:none;fill-opacity:1;stroke:#ff0000;stroke-width:0.03749099;stroke-miterlimit:4;stroke-dasharray:none;stroke-opacity:1"
       id="path4498-3"
       cx="120.8474"
       cy="238.26241"
       r="1.5" />
    <circle
       style="fill:none;fill-opacity:1;stroke:#ff0000;stroke-width:0.03749099;stroke-miterlimit:4;stroke-dasharray:none;stroke-opacity:1"
       id="path4498-6"
       cx="141.84741"
       cy="238.26241"
       r="1.5" />
    <rect
       style="fill:none;fill-opacity:1;stroke:#ff0000;stroke-width:0.13329715;stroke-miterlimit:4;stroke-dasharray:none;stroke-opacity:1"
       id="rect4528"
       width="33"
       height="4"
       x="114.3474"
       y="236.26241" />
    <circle
       style="fill:none;fill-opacity:1;stroke:#ff0000;stroke-width:0.03749099;stroke-miterlimit:4;stroke-dasharray:none;stroke-opacity:1"
       id="path4498-6-3"
       cx="142.84738"
       cy="268.26239"
       r="1.5" />
    <rect
       style="fill:none;fill-opacity:1;stroke:#ff0000;stroke-width:0.13329715;stroke-miterlimit:4;stroke-dasharray:none;stroke-opacity:1"
       id="rect4528-5"
       width="33"
       height="4"
       x="114.3474"
       y="266.26239" />
    <rect
       style="fill:none;fill-opacity:1;stroke:#ff0000;stroke-width:0.12567832;stroke-miterlimit:4;stroke-dasharray:none;stroke-opacity:1"
       id="rect4553"
       width="31.655506"
       height="5"
       x="125.69189"
       y="231.26241" />
    <circle
       style="fill:none;fill-opacity:1;stroke:#ff0000;stroke-width:0.03749099;stroke-miterlimit:4;stroke-dasharray:none;stroke-opacity:1"
       id="path4498-6-3-2"
       cx="120.8474"
       cy="268.26239"
       r="1.5" />
  </g>
</svg>
